X:497
T:Bear in the Buckwheat
M:4/4
L:1/8
C:Traditional Cape Breton
K:G
"C"c2 BA "G"BG G2|"G"g2 bg "D"aAAB|"C"c2 BA "G"Bcde|"D"dBAB "G"G/2G/2G G2:|
|"G"DB,DB, D2 GF|"C"ECEC E2 GE|"G"DB,DB, D2 Bc|"D"dBAB "G"G/2G/2G GE|
"G"DB,DB, DGFG|"C"ECEC EFGE|"G"DB,DB, D2 Bc|"D"dBAB "G"G/2G/2G G2|
|:"C"c2 BA "G"BG G2|"G"g2 bg "D"aAAB|"C"c2 BA "G"Bcde|"D"dBAB "G"G/2G/2G G2:|
|"G"dBdB d2 gf|"C"ecec e2 ge|"G"dBdB d2 ga|"D"bgab "G"g/2g/2g ge|
"G"dBdB dgfg|"C"ecec ef ge|"G"dBdB d2 ga|"D"bgab "G"g/2g/2g g2||

%%newpage

%%scale 0.75
